X:74
T:King Arthur - Fairest Isle
C:Purcell, H.
M:3/4
L:1/8
Q:1/4=80
K:C
|:G2|c4 cd|e2 dc B2|A4 Bc|d4 c2|
B4 cd|e2 fe d2|c4 BA|G4:|

